;FLAVOR:Marlin
;TIME:1351
;Filament used: 0.436001m
;Layer height: 0.12
;MINX:89.018
;MINY:87.677
;MINZ:0.12
;MAXX:130.983
;MAXY:129.615
;MAXZ:3.48
;Generated with Cura_SteamEngine 4.4.1
M140 S60
M105
M190 S60
M104 S200
M105
M109 S200
M82 ;absolute extrusion mode
M201 X500.00 Y500.00 Z100.00 E5000.00 ;Setup machine max acceleration
M203 X500.00 Y500.00 Z10.00 E50.00 ;Setup machine max feedrate
M204 P500.00 R1000.00 T500.00 ;Setup Print/Retract/Travel acceleration
M205 X8.00 Y8.00 Z0.40 E5.00 ;Setup Jerk
M220 S100 ;Reset Feedrate
M221 S100 ;Reset Flowrate

G28 ;Home

G92 E0 ;Reset Extruder
G1 Z2.0 F3000 ;Move Z Axis up
G1 X10.1 Y20 Z0.28 F5000.0 ;Move to start position
G1 X10.1 Y200.0 Z0.28 F1500.0 E15 ;Draw the first line
G1 X10.4 Y200.0 Z0.28 F5000.0 ;Move to side a little
G1 X10.4 Y20 Z0.28 F1500.0 E30 ;Draw the second line
G92 E0 ;Reset Extruder
G1 Z2.0 F3000 ;Move Z Axis up

G92 E0
G92 E0
G1 F1500 E-6.5
;LAYER_COUNT:29
;LAYER:0
M107
G0 F6000 X94.977 Y93.992 Z0.12
;TYPE:SKIRT
G1 F1500 E0
G1 F1200 X95.203 Y93.768 E0.00635
G1 X95.417 Y93.562 E0.01228
G1 X95.581 Y93.408 E0.01677
G1 X95.7 Y93.298 E0.02
G1 X96.243 Y92.803 E0.03466
G1 X97.215 Y92.013 E0.05966
G1 X97.83 Y91.569 E0.0748
G1 X98.075 Y91.397 E0.08077
G1 X98.348 Y91.211 E0.08736
G1 X98.903 Y90.857 E0.1005
G1 X99.568 Y90.46 E0.11596
G1 X99.852 Y90.297 E0.12249
G1 X100.34 Y90.025 E0.13364
G1 X101.457 Y89.482 E0.15843
G1 X102.051 Y89.234 E0.17127
G1 X102.343 Y89.117 E0.17755
G1 X102.944 Y88.886 E0.1904
G1 X103.823 Y88.59 E0.20891
G1 X104.133 Y88.5 E0.21535
G1 X104.45 Y88.413 E0.22191
G1 X104.725 Y88.342 E0.22758
G1 X104.884 Y88.302 E0.23085
G1 X105.536 Y88.144 E0.24424
G1 X106.431 Y87.967 E0.26244
G1 X106.777 Y87.913 E0.26943
G1 X107.125 Y87.864 E0.27644
G1 X107.368 Y87.834 E0.28133
G1 X107.514 Y87.817 E0.28426
G1 X108.187 Y87.743 E0.29778
G1 X109.389 Y87.677 E0.3218
G1 X110.163 Y87.677 E0.33724
G1 X110.51 Y87.682 E0.34417
G1 X110.827 Y87.692 E0.3505
G1 X111.448 Y87.73 E0.36292
G1 X112.263 Y87.802 E0.37924
G1 X112.625 Y87.84 E0.38651
G1 X113.126 Y87.901 E0.39658
G1 X114.308 Y88.111 E0.42054
G1 X114.973 Y88.267 E0.43417
G1 X115.322 Y88.355 E0.44135
G1 X115.916 Y88.515 E0.45363
G1 X116.783 Y88.787 E0.47176
G1 X117.13 Y88.912 E0.47912
G1 X117.431 Y89.025 E0.48554
G1 X117.619 Y89.099 E0.48957
G1 X117.778 Y89.164 E0.493
G1 X118.441 Y89.437 E0.5073
G1 X119.26 Y89.814 E0.5253
G1 X119.573 Y89.974 E0.53231
G1 X119.879 Y90.136 E0.53922
G1 X120.073 Y90.243 E0.54364
G1 X120.208 Y90.319 E0.54673
G1 X120.829 Y90.673 E0.561
G1 X121.869 Y91.346 E0.58572
G1 X122.392 Y91.728 E0.59864
G1 X122.616 Y91.896 E0.60423
G1 X122.951 Y92.154 E0.61267
G1 X123.475 Y92.584 E0.6262
G1 X124.083 Y93.115 E0.64231
G1 X124.325 Y93.333 E0.64881
G1 X124.722 Y93.701 E0.65961
G1 X125.586 Y94.598 E0.68446
G1 X126.002 Y95.082 E0.6972
G1 X126.216 Y95.339 E0.70387
G1 X126.624 Y95.844 E0.71683
G1 X127.144 Y96.543 E0.73422
G1 X127.296 Y96.765 E0.73958
G1 X127.496 Y97.066 E0.7468
G1 X127.656 Y97.317 E0.75274
G1 X127.744 Y97.458 E0.75605
G1 X128.112 Y98.055 E0.77005
G1 X128.554 Y98.843 E0.78808
G1 X128.709 Y99.148 E0.79491
G1 X128.854 Y99.443 E0.80147
G1 X128.985 Y99.721 E0.8076
G1 X129.053 Y99.87 E0.81087
G1 X129.314 Y100.446 E0.82349
G1 X129.767 Y101.619 E0.84858
G1 X130.002 Y102.35 E0.8639
G1 X130.083 Y102.613 E0.8694
G1 X130.163 Y102.885 E0.87505
G1 X130.332 Y103.532 E0.8884
G1 X130.524 Y104.37 E0.90555
G1 X130.596 Y104.706 E0.91241
G1 X130.696 Y105.215 E0.92276
G1 X130.866 Y106.443 E0.9475
G1 X130.916 Y107.057 E0.9598
G1 X130.936 Y107.361 E0.96588
G1 X130.972 Y108.032 E0.97929
G1 X130.983 Y108.959 E0.99779
G1 X130.973 Y109.284 E1.00428
G1 X130.957 Y109.632 E1.01123
G1 X130.94 Y109.904 E1.01667
G1 X130.93 Y110.045 E1.01949
G1 X130.88 Y110.708 E1.03276
G1 X130.777 Y111.595 E1.05058
G1 X130.721 Y111.95 E1.05775
G1 X130.655 Y112.325 E1.06535
G1 X130.608 Y112.568 E1.07029
G1 X130.581 Y112.703 E1.07303
G1 X130.441 Y113.381 E1.08685
G1 X130.127 Y114.566 E1.11131
G1 X129.907 Y115.241 E1.12548
G1 X129.792 Y115.573 E1.13249
G1 X129.66 Y115.938 E1.14024
G1 X129.427 Y116.528 E1.1529
G1 X129.125 Y117.233 E1.1682
G1 X128.995 Y117.527 E1.17462
G1 X128.761 Y118.032 E1.18573
G1 X128.18 Y119.121 E1.21036
G1 X127.856 Y119.654 E1.2228
G1 X127.685 Y119.925 E1.2292
G1 X127.327 Y120.477 E1.24233
G1 X126.72 Y121.322 E1.26309
G1 X126.377 Y121.755 E1.27412
G1 X126.138 Y122.047 E1.28165
G1 X125.675 Y122.592 E1.29592
G1 X125.106 Y123.212 E1.31271
G1 X124.89 Y123.43 E1.31883
G1 X124.612 Y123.701 E1.32658
G1 X124.394 Y123.906 E1.33255
G1 X124.265 Y124.026 E1.33607
G1 X123.761 Y124.485 E1.34967
G1 X122.792 Y125.271 E1.37457
G1 X122.17 Y125.72 E1.38988
G1 X121.933 Y125.887 E1.39567
G1 X121.659 Y126.074 E1.40229
G1 X121.099 Y126.431 E1.41554
G1 X120.421 Y126.836 E1.4313
G1 X120.136 Y127.001 E1.43787
G1 X119.666 Y127.263 E1.44861
G1 X118.546 Y127.807 E1.47346
G1 X117.942 Y128.059 E1.48652
G1 X117.655 Y128.174 E1.49269
G1 X117.057 Y128.404 E1.50548
G1 X116.193 Y128.695 E1.52367
G1 X115.885 Y128.785 E1.53007
G1 X115.573 Y128.872 E1.53654
G1 X115.312 Y128.94 E1.54192
G1 X115.124 Y128.987 E1.54579
G1 X114.458 Y129.148 E1.55946
G1 X113.58 Y129.323 E1.57733
G1 X113.268 Y129.372 E1.58363
G1 X112.95 Y129.417 E1.59004
G1 X112.73 Y129.445 E1.59446
G1 X112.523 Y129.469 E1.59862
G1 X111.764 Y129.551 E1.61386
G1 X110.527 Y129.615 E1.63858
G1 X109.724 Y129.611 E1.6546
G1 X109.429 Y129.605 E1.66049
G1 X109.146 Y129.596 E1.66614
G1 X108.536 Y129.56 E1.67833
G1 X107.794 Y129.495 E1.6932
G1 X107.445 Y129.459 E1.7002
G1 X106.886 Y129.392 E1.71143
G1 X105.646 Y129.171 E1.73657
G1 X104.97 Y129.01 E1.75044
G1 X104.669 Y128.933 E1.75664
G1 X104.095 Y128.779 E1.7685
G1 X103.217 Y128.504 E1.78686
G1 X102.87 Y128.379 E1.79422
G1 X102.584 Y128.271 E1.80032
G1 X102.385 Y128.193 E1.80458
G1 X102.201 Y128.12 E1.80854
G1 X101.547 Y127.85 E1.82266
G1 X100.734 Y127.474 E1.84053
G1 X100.435 Y127.321 E1.84723
G1 X100.15 Y127.17 E1.85367
G1 X99.917 Y127.042 E1.85897
G1 X99.743 Y126.945 E1.86295
G1 X99.148 Y126.604 E1.87664
G1 X98.12 Y125.935 E1.90111
G1 X97.56 Y125.525 E1.91496
G1 X97.317 Y125.342 E1.92103
G1 X97.014 Y125.107 E1.92869
G1 X96.531 Y124.711 E1.94115
G1 X95.943 Y124.199 E1.95671
G1 X95.688 Y123.969 E1.96356
G1 X95.276 Y123.587 E1.97477
G1 X94.409 Y122.687 E1.99971
G1 X93.984 Y122.192 E2.01273
G1 X93.775 Y121.94 E2.01927
G1 X93.379 Y121.45 E2.03184
G1 X92.838 Y120.722 E2.04994
G1 X92.653 Y120.45 E2.0565
G1 X92.452 Y120.143 E2.06383
G1 X92.323 Y119.939 E2.06864
G1 X92.253 Y119.827 E2.07128
G1 X91.947 Y119.33 E2.08293
G1 X91.46 Y118.452 E2.10296
G1 X91.013 Y117.551 E2.12303
G1 X90.834 Y117.172 E2.1314
G1 X90.678 Y116.825 E2.13899
G1 X90.251 Y115.72 E2.16263
G1 X90.015 Y114.995 E2.17785
G1 X89.917 Y114.678 E2.18447
G1 X89.831 Y114.384 E2.19058
G1 X89.667 Y113.754 E2.20357
G1 X89.476 Y112.921 E2.22063
G1 X89.407 Y112.596 E2.22726
G1 X89.306 Y112.085 E2.23765
G1 X89.132 Y110.828 E2.26298
G1 X89.083 Y110.215 E2.27525
G1 X89.063 Y109.921 E2.28113
G1 X89.027 Y109.241 E2.29472
G1 X89.018 Y108.31 E2.3133
G1 X89.028 Y107.995 E2.31959
G1 X89.043 Y107.658 E2.32632
G1 X89.06 Y107.386 E2.33176
G1 X89.07 Y107.241 E2.33466
G1 X89.122 Y106.555 E2.34839
G1 X89.234 Y105.62 E2.36718
G1 X89.288 Y105.288 E2.37389
G1 X89.345 Y104.965 E2.38044
G1 X89.392 Y104.722 E2.38538
G1 X89.419 Y104.587 E2.38812
G1 X89.559 Y103.909 E2.40194
G1 X89.876 Y102.715 E2.42659
G1 X90.095 Y102.045 E2.44066
G1 X90.201 Y101.737 E2.44716
G1 X90.327 Y101.387 E2.45458
G1 X90.561 Y100.793 E2.46732
G1 X90.883 Y100.039 E2.48369
G1 X91.024 Y99.722 E2.49061
G1 X91.242 Y99.253 E2.50093
G1 X91.811 Y98.188 E2.52503
G1 X92.142 Y97.642 E2.53777
G1 X92.315 Y97.364 E2.5443
G1 X92.668 Y96.819 E2.55726
G1 X93.201 Y96.067 E2.57566
G1 X93.396 Y95.815 E2.58201
G1 X93.596 Y95.565 E2.5884
G1 X93.78 Y95.341 E2.59419
G1 X93.904 Y95.192 E2.59806
G1 X94.345 Y94.674 E2.61163
G1 X94.977 Y93.992 E2.63019
G0 F6000 X95.259 Y94.276
G1 F1200 X95.485 Y94.052 E2.63654
G1 X95.691 Y93.854 E2.64224
G1 X95.855 Y93.7 E2.64673
G1 X95.97 Y93.593 E2.64986
G1 X96.513 Y93.098 E2.66453
G1 X97.449 Y92.338 E2.68859
G1 X98.064 Y91.894 E2.70373
G1 X98.301 Y91.728 E2.7095
G1 X98.574 Y91.542 E2.71609
G1 X99.108 Y91.201 E2.72874
G1 X99.773 Y90.804 E2.74419
G1 X100.046 Y90.646 E2.75049
G1 X100.534 Y90.374 E2.76164
G1 X101.611 Y89.851 E2.78553
G1 X102.205 Y89.603 E2.79837
G1 X102.486 Y89.491 E2.80441
G1 X103.087 Y89.26 E2.81726
G1 X103.935 Y88.974 E2.83512
G1 X104.245 Y88.884 E2.84156
G1 X104.55 Y88.801 E2.84787
G1 X104.825 Y88.73 E2.85354
G1 X104.979 Y88.691 E2.85671
G1 X105.631 Y88.533 E2.87009
G1 X106.492 Y88.362 E2.88761
G1 X106.838 Y88.308 E2.8946
G1 X107.174 Y88.261 E2.90137
G1 X107.417 Y88.231 E2.90626
G1 X107.557 Y88.215 E2.90907
G1 X108.23 Y88.141 E2.92258
G1 X109.389 Y88.077 E2.94575
G1 X110.163 Y88.077 E2.96119
G1 X110.497 Y88.082 E2.96786
G1 X110.814 Y88.092 E2.97419
G1 X111.413 Y88.128 E2.98616
G1 X112.228 Y88.2 E3.00249
G1 X112.576 Y88.237 E3.00947
G1 X113.077 Y88.298 E3.01955
G1 X114.217 Y88.5 E3.04265
G1 X114.882 Y88.656 E3.05628
G1 X115.218 Y88.741 E3.0632
G1 X115.812 Y88.901 E3.07547
G1 X116.647 Y89.163 E3.09294
G1 X116.994 Y89.288 E3.1003
G1 X117.284 Y89.398 E3.10649
G1 X117.472 Y89.472 E3.11052
G1 X117.626 Y89.533 E3.11383
G1 X118.289 Y89.806 E3.12813
G1 X119.078 Y90.17 E3.14547
G1 X119.391 Y90.33 E3.15249
G1 X119.685 Y90.486 E3.15913
G1 X119.879 Y90.593 E3.16355
G1 X120.009 Y90.666 E3.16653
G1 X120.63 Y91.02 E3.18079
G1 X121.633 Y91.669 E3.20463
G1 X122.156 Y92.051 E3.21756
G1 X122.372 Y92.213 E3.22295
G1 X122.707 Y92.471 E3.23138
G1 X123.212 Y92.885 E3.24442
G1 X123.82 Y93.416 E3.26052
G1 X124.053 Y93.626 E3.26678
G1 X124.45 Y93.994 E3.27759
G1 X125.283 Y94.859 E3.30155
G1 X125.699 Y95.343 E3.31429
G1 X125.905 Y95.59 E3.32071
G1 X126.313 Y96.095 E3.33366
G1 X126.814 Y96.769 E3.35042
G1 X126.966 Y96.991 E3.35579
G1 X127.158 Y97.281 E3.36273
G1 X127.318 Y97.532 E3.36867
G1 X127.403 Y97.668 E3.37187
G1 X127.771 Y98.265 E3.38587
G1 X128.198 Y99.025 E3.40326
G1 X128.353 Y99.33 E3.41009
G1 X128.492 Y99.614 E3.4164
G1 X128.623 Y99.892 E3.42253
G1 X128.689 Y100.035 E3.42568
G1 X128.95 Y100.611 E3.4383
G1 X129.386 Y101.742 E3.46249
G1 X129.621 Y102.473 E3.47781
G1 X129.699 Y102.726 E3.48309
G1 X129.779 Y102.998 E3.48875
G1 X129.942 Y103.622 E3.50162
G1 X130.134 Y104.46 E3.51878
G1 X130.203 Y104.784 E3.52539
G1 X130.303 Y105.293 E3.53574
G1 X130.467 Y106.476 E3.55957
G1 X130.517 Y107.09 E3.57187
G1 X130.537 Y107.382 E3.57771
G1 X130.573 Y108.053 E3.59112
G1 X130.583 Y108.947 E3.60896
G1 X130.573 Y109.272 E3.61545
G1 X130.557 Y109.607 E3.62214
G1 X130.54 Y109.879 E3.62758
G1 X130.531 Y110.015 E3.6303
G1 X130.481 Y110.678 E3.64357
G1 X130.382 Y111.533 E3.66075
G1 X130.326 Y111.888 E3.66792
G1 X130.262 Y112.249 E3.67523
G1 X130.215 Y112.492 E3.68017
G1 X130.189 Y112.623 E3.68284
G1 X130.049 Y113.301 E3.69665
G1 X129.746 Y114.442 E3.72021
G1 X129.526 Y115.117 E3.73438
G1 X129.416 Y115.437 E3.74113
G1 X129.284 Y115.802 E3.74888
G1 X129.06 Y116.371 E3.76108
G1 X128.758 Y117.076 E3.77639
G1 X128.632 Y117.359 E3.78257
G1 X128.398 Y117.864 E3.79368
G1 X127.838 Y118.913 E3.81741
G1 X127.514 Y119.446 E3.82986
G1 X127.349 Y119.708 E3.83603
G1 X126.991 Y120.26 E3.84916
G1 X126.407 Y121.074 E3.86916
G1 X126.064 Y121.507 E3.88018
G1 X125.833 Y121.788 E3.88744
G1 X125.37 Y122.333 E3.90171
G1 X124.822 Y122.931 E3.9179
G1 X124.606 Y123.149 E3.92402
G1 X124.338 Y123.41 E3.93149
G1 X124.12 Y123.615 E3.93746
G1 X123.995 Y123.73 E3.94085
G1 X123.491 Y124.189 E3.95445
G1 X122.558 Y124.947 E3.97844
G1 X121.936 Y125.396 E3.99375
G1 X121.707 Y125.556 E3.99932
G1 X121.433 Y125.743 E4.00594
G1 X120.894 Y126.088 E4.01872
G1 X120.216 Y126.493 E4.03448
G1 X119.941 Y126.652 E4.04082
G1 X119.471 Y126.914 E4.05155
G1 X118.392 Y127.438 E4.07549
G1 X117.788 Y127.69 E4.08855
G1 X117.511 Y127.8 E4.0945
G1 X116.913 Y128.03 E4.10729
G1 X116.081 Y128.312 E4.12482
G1 X115.773 Y128.402 E4.13122
G1 X115.472 Y128.485 E4.13745
G1 X115.211 Y128.553 E4.14283
G1 X115.03 Y128.598 E4.14656
G1 X114.364 Y128.759 E4.16023
G1 X113.518 Y128.928 E4.17745
G1 X113.206 Y128.977 E4.18375
G1 X112.899 Y129.02 E4.18993
G1 X112.679 Y129.048 E4.19436
G1 X112.48 Y129.072 E4.19836
G1 X111.721 Y129.154 E4.2136
G1 X110.529 Y129.215 E4.23741
G1 X109.726 Y129.211 E4.25344
G1 X109.442 Y129.206 E4.25911
G1 X109.159 Y129.197 E4.26476
G1 X108.571 Y129.162 E4.27651
G1 X107.829 Y129.097 E4.29138
G1 X107.493 Y129.062 E4.29812
G1 X106.934 Y128.995 E4.30935
G1 X105.739 Y128.782 E4.33358
G1 X105.063 Y128.621 E4.34744
G1 X104.772 Y128.547 E4.35344
G1 X104.198 Y128.393 E4.3653
G1 X103.353 Y128.128 E4.38297
G1 X103.006 Y128.003 E4.39033
G1 X102.73 Y127.899 E4.39622
G1 X102.531 Y127.821 E4.40048
G1 X102.354 Y127.75 E4.40429
G1 X101.7 Y127.48 E4.41841
G1 X100.916 Y127.118 E4.43564
G1 X100.617 Y126.965 E4.44234
G1 X100.342 Y126.819 E4.44856
G1 X100.109 Y126.691 E4.45386
G1 X99.942 Y126.598 E4.45768
G1 X99.347 Y126.257 E4.47136
G1 X98.356 Y125.613 E4.49495
G1 X97.796 Y125.203 E4.5088
G1 X97.562 Y125.026 E4.51465
G1 X97.259 Y124.791 E4.5223
G1 X96.794 Y124.409 E4.53431
G1 X96.206 Y123.897 E4.54987
G1 X95.96 Y123.676 E4.55647
G1 X95.548 Y123.294 E4.56768
G1 X94.713 Y122.426 E4.59172
G1 X94.288 Y121.931 E4.60474
G1 X94.086 Y121.689 E4.61103
G1 X93.69 Y121.199 E4.6236
G1 X93.169 Y120.497 E4.64105
G1 X92.984 Y120.225 E4.64761
G1 X92.79 Y119.929 E4.65468
G1 X92.661 Y119.725 E4.65949
G1 X92.594 Y119.617 E4.66203
G1 X92.288 Y119.12 E4.67368
G1 X91.818 Y118.274 E4.69299
G1 X91.371 Y117.373 E4.71306
G1 X91.199 Y117.008 E4.72111
G1 X91.043 Y116.661 E4.72871
G1 X90.632 Y115.596 E4.75149
G1 X90.396 Y114.871 E4.7667
G1 X90.301 Y114.566 E4.77308
G1 X90.215 Y114.272 E4.77919
G1 X90.057 Y113.665 E4.79171
G1 X89.866 Y112.832 E4.80876
G1 X89.799 Y112.518 E4.81517
G1 X89.698 Y112.007 E4.82556
G1 X89.531 Y110.797 E4.84994
G1 X89.482 Y110.184 E4.86221
G1 X89.463 Y109.899 E4.86791
G1 X89.427 Y109.219 E4.8815
G1 X89.417 Y108.323 E4.89938
G1 X89.427 Y108.008 E4.90567
G1 X89.443 Y107.683 E4.91217
G1 X89.46 Y107.411 E4.9176
G1 X89.469 Y107.271 E4.9204
G1 X89.521 Y106.585 E4.93413
G1 X89.628 Y105.684 E4.95224
G1 X89.682 Y105.352 E4.95895
G1 X89.738 Y105.041 E4.96526
G1 X89.785 Y104.798 E4.9702
G1 X89.811 Y104.667 E4.97286
G1 X89.951 Y103.989 E4.98668
G1 X90.257 Y102.84 E5.01041
G1 X90.476 Y102.17 E5.02447
G1 X90.578 Y101.873 E5.03074
G1 X90.704 Y101.523 E5.03816
G1 X90.929 Y100.95 E5.05045
G1 X91.251 Y100.196 E5.06681
G1 X91.387 Y99.891 E5.07347
G1 X91.605 Y99.422 E5.0838
G1 X92.153 Y98.395 E5.10703
G1 X92.484 Y97.849 E5.11977
G1 X92.651 Y97.581 E5.12607
G1 X93.004 Y97.036 E5.13903
G1 X93.518 Y96.312 E5.15675
G1 X93.713 Y96.06 E5.16311
G1 X93.905 Y95.819 E5.16925
G1 X94.089 Y95.595 E5.17504
G1 X94.209 Y95.452 E5.17876
G1 X94.65 Y94.934 E5.19234
G1 X95.259 Y94.276 E5.21023
G0 F6000 X95.541 Y94.561
G1 F1200 X95.767 Y94.337 E5.21658
G1 X95.965 Y94.145 E5.22209
G1 X96.129 Y93.991 E5.22658
G1 X96.239 Y93.889 E5.22957
G1 X96.782 Y93.394 E5.24423
G1 X97.683 Y92.662 E5.2674
G1 X98.298 Y92.218 E5.28254
G1 X98.526 Y92.059 E5.28808
G1 X98.799 Y91.873 E5.29468
G1 X99.314 Y91.544 E5.30687
G1 X99.979 Y91.147 E5.32233
G1 X100.241 Y90.995 E5.32837
G1 X100.729 Y90.723 E5.33952
G1 X101.765 Y90.22 E5.3625
G1 X102.359 Y89.972 E5.37535
G1 X102.63 Y89.864 E5.38117
G1 X103.231 Y89.633 E5.39402
G1 X104.046 Y89.358 E5.41119
G1 X104.356 Y89.268 E5.41763
G1 X104.65 Y89.188 E5.42371
G1 X104.925 Y89.117 E5.42938
G1 X105.073 Y89.08 E5.43242
G1 X105.725 Y88.922 E5.44581
G1 X106.554 Y88.757 E5.46268
G1 X106.9 Y88.703 E5.46966
G1 X107.223 Y88.658 E5.47617
G1 X107.466 Y88.628 E5.48106
G1 X107.601 Y88.612 E5.48377
G1 X108.274 Y88.538 E5.49728
G1 X109.389 Y88.477 E5.51957
G1 X110.163 Y88.477 E5.53501
G1 X110.485 Y88.482 E5.54144
G1 X110.802 Y88.492 E5.54777
G1 X111.378 Y88.527 E5.55928
G1 X112.193 Y88.599 E5.57561
G1 X112.528 Y88.634 E5.58233
G1 X113.029 Y88.695 E5.59241
G1 X114.126 Y88.89 E5.61464
G1 X114.791 Y89.046 E5.62827
G1 X115.114 Y89.127 E5.63492
G1 X115.708 Y89.287 E5.64719
G1 X116.512 Y89.54 E5.66401
G1 X116.859 Y89.665 E5.67137
G1 X117.138 Y89.77 E5.67732
