;FLAVOR:Marlin
;TIME:3635
;Filament used: 0.945896m
;Layer height: 0.12
;MINX:67.291
;MINY:88.233
;MINZ:0.12
;MAXX:154.417
;MAXY:120.049
;MAXZ:9.96
;Generated with Cura_SteamEngine 4.4.1
M140 S60
M105
M190 S60
M104 S200
M105
M109 S200
M82 ;absolute extrusion mode
M201 X500.00 Y500.00 Z100.00 E5000.00 ;Setup machine max acceleration
M203 X500.00 Y500.00 Z10.00 E50.00 ;Setup machine max feedrate
M204 P500.00 R1000.00 T500.00 ;Setup Print/Retract/Travel acceleration
M205 X8.00 Y8.00 Z0.40 E5.00 ;Setup Jerk
M220 S100 ;Reset Feedrate
M221 S100 ;Reset Flowrate

G28 ;Home

G92 E0 ;Reset Extruder
G1 Z2.0 F3000 ;Move Z Axis up
G1 X10.1 Y20 Z0.28 F5000.0 ;Move to start position
G1 X10.1 Y200.0 Z0.28 F1500.0 E15 ;Draw the first line
G1 X10.4 Y200.0 Z0.28 F5000.0 ;Move to side a little
G1 X10.4 Y20 Z0.28 F1500.0 E30 ;Draw the second line
G92 E0 ;Reset Extruder
G1 Z2.0 F3000 ;Move Z Axis up

G92 E0
G92 E0
G1 F1500 E-6.5
;LAYER_COUNT:83
;LAYER:0
M107
G0 F6000 X71.163 Y90.87 Z0.12
;TYPE:SKIRT
G1 F1500 E0
G1 F1200 X71.902 Y90.293 E0.01871
G1 X72.688 Y89.781 E0.03743
G1 X73.514 Y89.337 E0.05614
G1 X74.375 Y88.966 E0.07485
G1 X75.265 Y88.669 E0.09358
G1 X76.177 Y88.449 E0.1123
G1 X77.104 Y88.307 E0.13101
G1 X77.957 Y88.247 E0.14808
G1 X78.214 Y88.239 E0.15321
G1 X78.555 Y88.234 E0.16002
G1 X87.057 Y88.233 E0.32968
G1 X87.216 Y88.234 E0.33286
G1 X87.914 Y88.244 E0.34679
G1 X88.541 Y88.271 E0.35931
G1 X88.988 Y88.303 E0.36825
G1 X89.134 Y88.314 E0.37118
G1 X91.001 Y88.473 E0.40857
G1 X93.455 Y88.612 E0.45762
G1 X96.014 Y88.684 E0.50871
G1 X98.502 Y88.684 E0.55836
G1 X101.06 Y88.612 E0.60943
G1 X103.562 Y88.47 E0.65944
G1 X104.959 Y88.36 E0.6874
G1 X105.835 Y88.284 E0.70495
G1 X106.453 Y88.248 E0.7173
G1 X106.786 Y88.238 E0.72395
G1 X107.116 Y88.233 E0.73054
G1 X108.553 Y88.233 E0.75921
G1 X108.707 Y88.234 E0.76229
G1 X110.208 Y88.255 E0.79224
G1 X110.367 Y88.258 E0.79542
G1 X111.487 Y88.29 E0.81778
G1 X112.778 Y88.299 E0.84354
G1 X114.213 Y88.299 E0.87218
G1 X114.371 Y88.3 E0.87533
G1 X115.069 Y88.31 E0.88926
G1 X115.683 Y88.336 E0.90153
G1 X116.095 Y88.365 E0.90977
G1 X116.253 Y88.377 E0.91293
G1 X118.142 Y88.537 E0.95076
G1 X120.601 Y88.677 E0.99991
G1 X123.159 Y88.749 E1.05098
G1 X125.648 Y88.749 E1.10065
G1 X128.206 Y88.677 E1.15172
G1 X130.729 Y88.534 E1.20215
G1 X132.056 Y88.43 E1.22871
G1 X132.989 Y88.349 E1.2474
G1 X133.621 Y88.313 E1.26004
G1 X133.934 Y88.304 E1.26628
G1 X134.25 Y88.299 E1.27259
G1 X142.71 Y88.299 E1.44142
G1 X142.868 Y88.3 E1.44457
G1 X143.566 Y88.31 E1.4585
G1 X144.502 Y88.364 E1.47721
G1 X145.43 Y88.496 E1.49592
G1 X146.344 Y88.708 E1.51464
G1 X147.236 Y88.997 E1.53335
G1 X148.101 Y89.36 E1.55208
G1 X148.931 Y89.796 E1.57078
G1 X149.722 Y90.301 E1.58951
G1 X150.466 Y90.872 E1.60823
G1 X151.159 Y91.504 E1.62695
G1 X151.796 Y92.192 E1.64566
G1 X152.371 Y92.933 E1.66437
G1 X152.882 Y93.719 E1.68308
G1 X153.324 Y94.547 E1.70181
G1 X153.693 Y95.409 E1.72053
G1 X153.988 Y96.299 E1.73924
G1 X154.206 Y97.211 E1.75795
G1 X154.346 Y98.139 E1.77668
G1 X154.404 Y98.999 E1.79388
G1 X154.413 Y99.318 E1.80025
G1 X154.417 Y99.629 E1.80645
G1 X154.416 Y108.33 E1.98009
G1 X154.415 Y108.453 E1.98255
G1 X154.407 Y109.163 E1.99672
G1 X154.357 Y110.099 E2.01542
G1 X154.227 Y111.028 E2.03414
G1 X154.018 Y111.943 E2.05287
G1 X153.732 Y112.836 E2.07159
G1 X153.371 Y113.701 E2.09029
G1 X152.938 Y114.533 E2.10901
G1 X152.435 Y115.325 E2.12773
G1 X151.867 Y116.071 E2.14644
G1 X151.237 Y116.766 E2.16516
G1 X150.55 Y117.405 E2.18389
G1 X149.812 Y117.983 E2.20259
G1 X149.027 Y118.496 E2.22131
G1 X148.201 Y118.94 E2.24002
G1 X147.34 Y119.312 E2.25874
G1 X146.45 Y119.61 E2.27747
G1 X145.539 Y119.831 E2.29618
G1 X144.612 Y119.973 E2.31489
G1 X143.739 Y120.034 E2.33235
G1 X143.407 Y120.044 E2.33898
G1 X143.076 Y120.049 E2.34559
G1 X113.127 Y120.049 E2.94325
G1 X112.973 Y120.048 E2.94633
G1 X111.473 Y120.027 E2.97626
G1 X111.314 Y120.024 E2.97944
G1 X110.193 Y119.992 E3.00182
G1 X108.902 Y119.983 E3.02758
G1 X79.019 Y119.983 E3.62393
G1 X78.843 Y119.982 E3.62744
G1 X78.157 Y119.971 E3.64113
G1 X77.22 Y119.916 E3.65986
G1 X76.292 Y119.781 E3.67858
G1 X75.379 Y119.568 E3.69729
G1 X74.487 Y119.278 E3.71601
G1 X73.623 Y118.913 E3.73472
G1 X72.793 Y118.475 E3.75345
G1 X72.004 Y117.969 E3.77216
G1 X71.261 Y117.397 E3.79087
G1 X70.569 Y116.764 E3.80958
G1 X69.933 Y116.074 E3.82831
G1 X69.359 Y115.333 E3.84702
G1 X68.849 Y114.545 E3.86575
G1 X68.409 Y113.717 E3.88446
G1 X68.041 Y112.855 E3.90316
G1 X67.748 Y111.964 E3.92188
G1 X67.531 Y111.051 E3.94061
G1 X67.393 Y110.124 E3.95931
G1 X67.336 Y109.222 E3.97735
G1 X67.313 Y108.209 E3.99757
G1 X67.31 Y107.985 E4.00204
G1 X67.291 Y99.931 E4.16277
G1 X67.292 Y99.772 E4.16594
G1 X67.3 Y99.109 E4.17917
G1 X67.351 Y98.173 E4.19788
G1 X67.482 Y97.244 E4.2166
G1 X67.691 Y96.33 E4.23531
G1 X67.978 Y95.437 E4.25403
G1 X68.34 Y94.572 E4.27274
G1 X68.774 Y93.74 E4.29147
G1 X69.277 Y92.949 E4.31018
G1 X69.846 Y92.203 E4.3289
G1 X70.476 Y91.509 E4.3476
G1 X71.163 Y90.87 E4.36633
G0 F6000 X71.552 Y91.066
G1 F1200 X72.287 Y90.512 E4.38469
G1 X73.067 Y90.023 E4.40307
G1 X73.887 Y89.604 E4.42144
G1 X74.74 Y89.257 E4.43982
G1 X75.62 Y88.986 E4.4582
G1 X76.52 Y88.792 E4.47657
G1 X77.433 Y88.677 E4.49493
G1 X77.969 Y88.647 E4.50565
G1 X78.226 Y88.639 E4.51078
G1 X78.555 Y88.634 E4.51734
G1 X87.057 Y88.633 E4.68701
G1 X87.21 Y88.634 E4.69006
G1 X87.908 Y88.644 E4.70399
G1 X88.513 Y88.67 E4.71608
G1 X88.96 Y88.702 E4.72502
G1 X89.1 Y88.713 E4.72782
G1 X90.942 Y88.869 E4.76471
G1 X93.457 Y89.012 E4.81499
G1 X96.003 Y89.084 E4.86581
G1 X98.513 Y89.084 E4.9159
G1 X101.058 Y89.012 E4.96671
G1 X103.616 Y88.867 E5.01784
G1 X104.945 Y88.762 E5.04445
G1 X105.87 Y88.682 E5.06297
G1 X106.465 Y88.648 E5.07487
G1 X106.798 Y88.638 E5.08152
G1 X107.116 Y88.633 E5.08786
G1 X108.553 Y88.633 E5.11654
G1 X108.701 Y88.634 E5.11949
G1 X110.202 Y88.655 E5.14945
G1 X110.356 Y88.658 E5.15252
G1 X111.473 Y88.69 E5.17482
G1 X112.775 Y88.699 E5.20081
G1 X114.213 Y88.699 E5.2295
G1 X114.365 Y88.7 E5.23254
G1 X115.063 Y88.71 E5.24647
G1 X115.655 Y88.735 E5.25829
G1 X116.067 Y88.764 E5.26654
G1 X116.219 Y88.776 E5.26958
G1 X118.084 Y88.934 E5.30693
G1 X120.603 Y89.077 E5.35728
G1 X123.148 Y89.149 E5.40809
G1 X125.659 Y89.149 E5.4582
G1 X128.204 Y89.077 E5.50901
G1 X130.737 Y88.933 E5.55964
G1 X132.119 Y88.825 E5.5873
G1 X133.023 Y88.747 E5.60541
G1 X133.632 Y88.712 E5.61758
G1 X133.945 Y88.703 E5.62383
G1 X134.25 Y88.699 E5.62992
G1 X142.71 Y88.699 E5.79875
G1 X142.862 Y88.7 E5.80178
G1 X143.56 Y88.71 E5.81571
G1 X144.479 Y88.763 E5.83408
G1 X145.39 Y88.896 E5.85245
G1 X146.286 Y89.107 E5.87082
G1 X147.16 Y89.395 E5.88919
G1 X148.007 Y89.758 E5.90758
G1 X148.818 Y90.193 E5.92594
G1 X149.588 Y90.697 E5.94431
G1 X150.312 Y91.266 E5.96268
G1 X150.984 Y91.896 E5.98107
G1 X151.599 Y92.581 E5.99944
G1 X152.152 Y93.317 E6.01781
G1 X152.639 Y94.098 E6.03618
G1 X153.056 Y94.919 E6.05455
G1 X153.401 Y95.773 E6.07293
G1 X153.67 Y96.653 E6.0913
G1 X153.862 Y97.554 E6.10968
G1 X153.975 Y98.467 E6.12804
G1 X154.004 Y99.01 E6.13889
G1 X154.013 Y99.329 E6.14526
G1 X154.017 Y99.629 E6.15125
G1 X154.016 Y108.33 E6.32488
G1 X154.015 Y108.448 E6.32724
G1 X154.007 Y109.158 E6.34141
G1 X153.957 Y110.078 E6.3598
G1 X153.827 Y110.989 E6.37816
G1 X153.619 Y111.886 E6.39654
G1 X153.333 Y112.761 E6.41491
G1 X152.973 Y113.608 E6.43327
G1 X152.54 Y114.421 E6.45165
G1 X152.039 Y115.193 E6.47002
G1 X151.472 Y115.919 E6.4884
G1 X150.845 Y116.593 E6.50677
G1 X150.161 Y117.209 E6.52514
G1 X149.427 Y117.765 E6.54352
G1 X148.647 Y118.254 E6.56189
G1 X147.828 Y118.674 E6.58026
G1 X146.975 Y119.021 E6.59864
G1 X146.095 Y119.293 E6.61702
G1 X145.195 Y119.487 E6.63539
G1 X144.282 Y119.603 E6.65376
G1 X143.727 Y119.634 E6.66485
G1 X143.395 Y119.644 E6.67148
G1 X143.076 Y119.649 E6.67784
G1 X113.127 Y119.649 E7.27551
G1 X112.979 Y119.648 E7.27846
G1 X111.479 Y119.627 E7.3084
G1 X111.325 Y119.624 E7.31147
G1 X110.207 Y119.592 E7.33379
G1 X108.905 Y119.583 E7.35978
G1 X79.019 Y119.583 E7.95618
G1 X78.849 Y119.582 E7.95958
G1 X78.163 Y119.571 E7.97327
G1 X77.244 Y119.516 E7.99164
G1 X76.333 Y119.382 E8.01002
G1 X75.437 Y119.169 E8.0284
G1 X74.564 Y118.879 E8.04675
G1 X73.718 Y118.515 E8.06513
G1 X72.908 Y118.078 E8.0835
G1 X72.138 Y117.573 E8.10187
G1 X71.415 Y117.003 E8.12025
G1 X70.744 Y116.373 E8.13862
G1 X70.131 Y115.686 E8.15699
G1 X69.579 Y114.949 E8.17537
G1 X69.093 Y114.167 E8.19374
G1 X68.677 Y113.346 E8.21211
G1 X68.334 Y112.491 E8.23049
G1 X68.067 Y111.61 E8.24886
G1 X67.876 Y110.71 E8.26722
G1 X67.765 Y109.796 E8.2856
G1 X67.736 Y109.213 E8.29724
G1 X67.713 Y108.2 E8.31747
G1 X67.71 Y107.984 E8.32178
G1 X67.691 Y99.93 E8.4825
G1 X67.692 Y99.777 E8.48556
G1 X67.7 Y99.114 E8.49879
G1 X67.751 Y98.195 E8.51716
G1 X67.881 Y97.284 E8.53552
G1 X68.091 Y96.387 E8.5539
G1 X68.377 Y95.512 E8.57228
G1 X68.738 Y94.665 E8.59065
G1 X69.171 Y93.853 E8.60901
G1 X69.673 Y93.081 E8.62739
G1 X70.24 Y92.356 E8.64576
G1 X70.868 Y91.682 E8.66414
G1 X71.552 Y91.066 E8.68251
G0 F6000 X71.941 Y91.266
G1 F1200 X72.671 Y90.735 E8.70053
G1 X73.446 Y90.271 E8.71855
G1 X74.258 Y89.877 E8.73656
G1 X75.102 Y89.556 E8.75458
G1 X75.972 Y89.311 E8.77262
G1 X76.859 Y89.144 E8.79063
G1 X77.982 Y89.047 E8.81313
G1 X78.239 Y89.039 E8.81826
G1 X78.555 Y89.034 E8.82456
G1 X87.057 Y89.033 E8.99423
G1 X87.204 Y89.034 E8.99716
G1 X87.902 Y89.044 E9.0111
G1 X88.484 Y89.069 E9.02272
G1 X88.931 Y89.101 E9.03166
G1 X89.066 Y89.112 E9.03437
G1 X90.886 Y89.267 E9.07082
G1 X93.458 Y89.412 E9.12223
G1 X95.991 Y89.484 E9.1728
G1 X98.524 Y89.484 E9.22334
G1 X101.058 Y89.412 E9.27393
G1 X103.668 Y89.264 E9.3261
G1 X104.979 Y89.161 E9.35235
G1 X105.904 Y89.081 E9.37087
G1 X106.477 Y89.048 E9.38233
G1 X106.81 Y89.038 E9.38898
G1 X107.116 Y89.033 E9.39508
G1 X108.553 Y89.033 E9.42376
G1 X108.696 Y89.034 E9.42661
G1 X110.197 Y89.055 E9.45657
G1 X110.344 Y89.058 E9.45951
G1 X111.458 Y89.09 E9.48175
G1 X112.772 Y89.099 E9.50797
G1 X114.213 Y89.099 E9.53673
G1 X114.359 Y89.1 E9.53964
G1 X115.057 Y89.11 E9.55357
G1 X115.627 Y89.134 E9.56495
G1 X116.039 Y89.163 E9.5732
G1 X116.186 Y89.175 E9.57614
G1 X118.031 Y89.332 E9.61309
G1 X120.603 Y89.477 E9.6645
G1 X123.137 Y89.549 E9.71509
G1 X125.67 Y89.549 E9.76564
G1 X128.204 Y89.477 E9.81623
G1 X130.789 Y89.331 E9.8679
G1 X132.192 Y89.221 E9.89598
G1 X133.058 Y89.146 E9.91333
G1 X133.644 Y89.112 E9.92504
G1 X133.957 Y89.103 E9.93129
G1 X134.25 Y89.099 E9.93714
G1 X142.71 Y89.099 E10.10597
G1 X142.856 Y89.1 E10.10888
G1 X143.554 Y89.11 E10.12281
G1 X144.456 Y89.163 E10.14084
G1 X145.349 Y89.295 E10.15886
G1 X146.227 Y89.506 E10.17688
G1 X147.083 Y89.794 E10.1949
G1 X147.91 Y90.156 E10.21292
G1 X148.702 Y90.591 E10.23095
G1 X149.453 Y91.093 E10.24898
G1 X150.156 Y91.66 E10.267
G1 X150.806 Y92.287 E10.28502
G1 X151.398 Y92.969 E10.30304
G1 X151.928 Y93.7 E10.32106
G1 X152.39 Y94.476 E10.33909
G1 X152.783 Y95.289 E10.35711
G1 X153.101 Y96.134 E10.37512
G1 X153.344 Y97.004 E10.39315
G1 X153.509 Y97.892 E10.41117
G1 X153.604 Y99.021 E10.43378
G1 X153.613 Y99.34 E10.44015
G1 X153.617 Y99.629 E10.44592
G1 X153.616 Y108.33 E10.61956
G1 X153.615 Y108.444 E10.62183
G1 X153.607 Y109.154 E10.636
G1 X153.557 Y110.056 E10.65403
G1 X153.428 Y110.949 E10.67204
G1 X153.219 Y111.828 E10.69007
G1 X152.934 Y112.685 E10.70809
G1 X152.574 Y113.513 E10.72611
G1 X152.143 Y114.307 E10.74414
G1 X151.642 Y115.059 E10.76217
G1 X151.078 Y115.763 E10.78017
G1 X150.453 Y116.415 E10.7982
G1 X149.773 Y117.01 E10.81623
G1 X149.043 Y117.541 E10.83424
G1 X148.269 Y118.006 E10.85226
G1 X147.456 Y118.401 E10.8703
G1 X146.612 Y118.723 E10.88832
G1 X145.743 Y118.968 E10.90634
G1 X144.856 Y119.136 E10.92436
G1 X143.715 Y119.234 E10.94721
G1 X143.383 Y119.244 E10.95384
G1 X143.076 Y119.249 E10.95997
G1 X113.127 Y119.249 E11.55763
G1 X112.984 Y119.248 E11.56049
G1 X111.484 Y119.227 E11.59042
G1 X111.337 Y119.224 E11.59336
G1 X110.222 Y119.192 E11.61562
G1 X108.908 Y119.183 E11.64184
G1 X79.019 Y119.183 E12.23831
G1 X78.855 Y119.182 E12.24158
G1 X78.169 Y119.171 E12.25527
G1 X77.268 Y119.116 E12.27329
G1 X76.375 Y118.982 E12.29131
G1 X75.497 Y118.77 E12.30933
G1 X74.642 Y118.481 E12.32734
G1 X73.815 Y118.117 E12.34537
G1 X73.024 Y117.681 E12.3634
G1 X72.274 Y117.178 E12.38142
G1 X71.572 Y116.61 E12.39944
G1 X70.923 Y115.982 E12.41746
G1 X70.332 Y115.299 E12.43549
G1 X69.804 Y114.566 E12.45351
G1 X69.343 Y113.79 E12.47153
G1 X68.952 Y112.976 E12.48955
G1 X68.634 Y112.13 E12.50758
G1 X68.393 Y111.26 E12.5256
G1 X68.229 Y110.372 E12.54362
G1 X68.136 Y109.204 E12.567
G1 X68.113 Y108.191 E12.58722
G1 X68.11 Y107.983 E12.59138
G1 X68.091 Y99.929 E12.7521
G1 X68.092 Y99.782 E12.75504
G1 X68.1 Y99.119 E12.76827
G1 X68.151 Y98.217 E12.7863
G1 X68.281 Y97.324 E12.80431
G1 X68.49 Y96.445 E12.82234
G1 X68.776 Y95.588 E12.84037
G1 X69.136 Y94.76 E12.85838
G1 X69.569 Y93.967 E12.87641
G1 X70.069 Y93.216 E12.89442
G1 X70.635 Y92.512 E12.91245
G1 X71.26 Y91.86 E12.93047
G1 X71.941 Y91.266 E12.9485
G1 F1500 E6.4485
;MESH:holder.STL(1)
G0 F6000 X77.645 Y107.778
G0 X79.519 Y107.773
G0 X108.286 Y107.983
;TYPE:WALL-INNER
G1 F1500 E12.9485
G1 F1200 X79.31 Y107.983 E13.52675
G1 X79.291 Y100.432 E13.67744
G1 X79.291 Y100.233 E13.68141
G1 X79.49 Y100.233 E13.68398
G1 X86.786 Y100.233 E13.82958
G1 X86.786 Y107.483 E13.97426
G1 X107.786 Y107.483 E14.39334
G1 X107.786 Y100.233 E14.53802
G1 X108.286 Y100.233 E14.548
G1 X108.286 Y107.983 E14.70266
G0 F6000 X108.686 Y108.383
G1 F1200 X78.911 Y108.383 E15.29685
G1 X78.89 Y100.032 E15.4635
G1 X78.89 Y99.833 E15.46747
G1 X79.089 Y99.833 E15.47004
G1 X87.186 Y99.833 E15.63163
G1 X87.186 Y107.083 E15.77631
G1 X107.386 Y107.083 E16.17942
G1 X107.386 Y99.833 E16.3241
G1 X108.686 Y99.833 E16.35005
G1 X108.686 Y108.383 E16.52067
G0 F6000 X109.086 Y108.783
;TYPE:WALL-OUTER
G1 F1200 X78.512 Y108.783 E17.13081
G1 X78.489 Y99.433 E17.3174
G1 X87.586 Y99.433 E17.49894
G1 X87.586 Y106.683 E17.64362
G1 X106.986 Y106.683 E18.03077
G1 X106.986 Y99.433 E18.17545
G1 X109.086 Y99.433 E18.21736
G1 X109.086 Y108.783 E18.40395
G1 F1500 E11.90395
G0 F6000 X108.816 Y108.513
G0 X79.491 Y107.801
G0 X79.474 Y100.415
G0 X86.604 Y100.415
G0 X86.676 Y107.593
G0 X86.396 Y107.593
;TYPE:SKIN
G1 F1500 E18.40395
G1 F1200 X79.7 Y107.593 E18.53757
G1 X79.681 Y100.623 E18.67667
G1 X86.396 Y100.623 E18.81067
G1 X86.396 Y107.593 E18.94977
G0 F6000 X86.676 Y107.593
G0 X86.604 Y100.415
G0 X79.474 Y100.415
G0 X79.491 Y107.801
G0 X80.279 Y107.873
G0 X80.279 Y107.432
G1 F1200 X79.857 Y107.01 E18.96168
G0 F6000 X79.856 Y106.443
G1 F1200 X80.844 Y107.432 E18.98957
G0 F6000 X81.41 Y107.432
G1 F1200 X79.854 Y105.876 E19.03349
G0 F6000 X79.853 Y105.309
G1 F1200 X81.976 Y107.432 E19.0934
G0 F6000 X82.541 Y107.432
G1 F1200 X79.852 Y104.742 E19.16931
G0 F6000 X79.85 Y104.175
G1 F1200 X83.107 Y107.432 E19.26123
G0 F6000 X83.673 Y107.432
G1 F1200 X79.849 Y103.608 E19.36915
G0 F6000 X79.847 Y103.041
G1 F1200 X84.239 Y107.432 E19.49309
G0 F6000 X84.804 Y107.432
G1 F1200 X79.846 Y102.473 E19.63303
G0 F6000 X79.845 Y101.906
G1 F1200 X85.37 Y107.432 E19.78897
G0 F6000 X85.936 Y107.432
G1 F1200 X79.843 Y101.339 E19.96092
G0 F6000 X79.852 Y100.782
G1 F1200 X86.235 Y107.166 E20.14108
G0 F6000 X86.235 Y106.6
G1 F1200 X80.417 Y100.782 E20.30528
G0 F6000 X80.983 Y100.782
G1 F1200 X86.235 Y106.034 E20.4535
G0 F6000 X86.235 Y105.469
G1 F1200 X81.549 Y100.782 E20.58576
G0 F6000 X82.114 Y100.782
G1 F1200 X86.235 Y104.903 E20.70207
G0 F6000 X86.235 Y104.337
G1 F1200 X82.68 Y100.782 E20.8024
G0 F6000 X83.246 Y100.782
G1 F1200 X86.235 Y103.772 E20.88677
G0 F6000 X86.235 Y103.206
G1 F1200 X83.811 Y100.782 E20.95518
G0 F6000 X84.377 Y100.782
G1 F1200 X86.235 Y102.64 E21.00761
G0 F6000 X86.235 Y102.075
G1 F1200 X84.943 Y100.782 E21.04409
G0 F6000 X85.509 Y100.782
G1 F1200 X86.235 Y101.509 E21.06459
G0 F6000 X86.235 Y100.943
G1 F1200 X86.074 Y100.782 E21.06914
G0 F6000 X86.074 Y100.343
G0 X86.604 Y100.415
G0 X86.712 Y107.593
G0 X86.712 Y107.642
;TYPE:SKIN
G1 F1200 X86.892 Y107.822 E21.07168
G0 F6000 X86.995 Y107.642
G1 F1200 X87.174 Y107.822 E21.07421
G0 F6000 X87.278 Y107.642
