;FLAVOR:Marlin
;TIME:983
;Filament used: 0.265251m
;Layer height: 0.12
;MINX:87.875
;MINY:97.667
;MINZ:0.12
;MAXX:132.124
;MAXY:133.667
;MAXZ:6.48
;Generated with Cura_SteamEngine 4.4.1
M140 S60
M105
M190 S60
M104 S200
M105
M109 S200
M82 ;absolute extrusion mode
M201 X500.00 Y500.00 Z100.00 E5000.00 ;Setup machine max acceleration
M203 X500.00 Y500.00 Z10.00 E50.00 ;Setup machine max feedrate
M204 P500.00 R1000.00 T500.00 ;Setup Print/Retract/Travel acceleration
M205 X8.00 Y8.00 Z0.40 E5.00 ;Setup Jerk
M220 S100 ;Reset Feedrate
M221 S100 ;Reset Flowrate

G28 ;Home

G92 E0 ;Reset Extruder
G1 Z2.0 F3000 ;Move Z Axis up
G1 X10.1 Y20 Z0.28 F5000.0 ;Move to start position
G1 X10.1 Y200.0 Z0.28 F1500.0 E15 ;Draw the first line
G1 X10.4 Y200.0 Z0.28 F5000.0 ;Move to side a little
G1 X10.4 Y20 Z0.28 F1500.0 E30 ;Draw the second line
G92 E0 ;Reset Extruder
G1 Z2.0 F3000 ;Move Z Axis up

G92 E0
G92 E0
G1 F1500 E-6.5
;LAYER_COUNT:54
;LAYER:0
M107
G0 F6000 X91.801 Y100.544 Z0.12
;TYPE:SKIRT
G1 F1500 E0
G1 F1200 X92.527 Y99.951 E0.01871
G1 X93.302 Y99.422 E0.03743
G1 X94.119 Y98.961 E0.05615
G1 X94.972 Y98.572 E0.07486
G1 X95.946 Y98.229 E0.09547
G1 X96.229 Y98.144 E0.10137
G1 X97.138 Y97.913 E0.12008
G1 X98.063 Y97.76 E0.13879
G1 X98.999 Y97.686 E0.15753
G1 X99.222 Y97.678 E0.16198
G1 X99.515 Y97.671 E0.16783
G1 X99.733 Y97.669 E0.17218
G1 X99.832 Y97.669 E0.17416
G1 X114.16 Y97.667 E0.46009
G1 X114.317 Y97.668 E0.46322
G1 X115.026 Y97.678 E0.47737
G1 X115.962 Y97.731 E0.49608
G1 X116.946 Y97.874 E0.51592
G1 X117.3 Y97.942 E0.52312
G1 X118.213 Y98.159 E0.54185
G1 X119.104 Y98.452 E0.56056
G1 X119.966 Y98.819 E0.57926
G1 X121.096 Y99.443 E0.60502
G1 X121.424 Y99.65 E0.61276
G1 X122.369 Y100.318 E0.63585
G1 X124.602 Y102.08 E0.69262
G1 X126.673 Y103.623 E0.74416
G1 X127.25 Y104.039 E0.75835
G1 X127.986 Y104.619 E0.77705
G1 X128.671 Y105.26 E0.79577
G1 X129.298 Y105.958 E0.8145
G1 X129.892 Y106.746 E0.83419
G1 X130.096 Y107.044 E0.8414
G1 X130.592 Y107.84 E0.86011
G1 X131.019 Y108.675 E0.87883
G1 X131.373 Y109.544 E0.89756
G1 X131.649 Y110.43 E0.91607
G1 X131.707 Y110.648 E0.92058
G1 X131.909 Y111.564 E0.9393
G1 X132.064 Y112.942 E0.96697
G1 X132.11 Y113.888 E0.98587
G1 X132.123 Y114.418 E0.99645
G1 X132.124 Y116.953 E1.04704
G1 X132.123 Y117.098 E1.04993
G1 X132.114 Y117.802 E1.06398
G1 X132.062 Y118.738 E1.08269
G1 X131.916 Y119.745 E1.10299
G1 X131.845 Y120.113 E1.11047
G1 X131.628 Y121.025 E1.12918
G1 X131.334 Y121.916 E1.14791
G1 X130.966 Y122.778 E1.16661
G1 X130.525 Y123.606 E1.18533
G1 X130.273 Y124.014 E1.1949
G1 X130.059 Y124.344 E1.20275
G1 X129.516 Y125.108 E1.22146
G1 X128.909 Y125.824 E1.24019
G1 X128.244 Y126.485 E1.2589
G1 X127.17 Y127.348 E1.28639
G1 X126.678 Y127.695 E1.29841
G1 X126.524 Y127.802 E1.30215
G1 X125.103 Y128.768 E1.33644
G1 X123.068 Y130.237 E1.38653
G1 X122.66 Y130.548 E1.39676
G1 X122.516 Y130.656 E1.40036
G1 X121.83 Y131.161 E1.41736
G1 X121.38 Y131.475 E1.42831
G1 X121.031 Y131.706 E1.43666
G1 X120.228 Y132.19 E1.45537
G1 X119.386 Y132.603 E1.47408
G1 X118.512 Y132.944 E1.49281
G1 X117.52 Y133.231 E1.51341
G1 X117.286 Y133.287 E1.51822
G1 X116.77 Y133.397 E1.52874
G1 X116.458 Y133.456 E1.53508
G1 X115.53 Y133.591 E1.5538
G1 X114.607 Y133.646 E1.57225
G1 X113.697 Y133.662 E1.59041
G1 X113.506 Y133.664 E1.59422
G1 X100.041 Y133.667 E1.86293
G1 X99.883 Y133.666 E1.86608
G1 X99.248 Y133.657 E1.87876
G1 X98.312 Y133.604 E1.89747
G1 X97.383 Y133.471 E1.91619
G1 X96.814 Y133.349 E1.92781
G1 X96.554 Y133.286 E1.93315
G1 X95.652 Y133.026 E1.95188
G1 X94.776 Y132.691 E1.9706
G1 X93.932 Y132.282 E1.98931
G1 X93.126 Y131.803 E2.00802
G1 X92.364 Y131.257 E2.02673
G1 X91.578 Y130.579 E2.04744
G1 X91.406 Y130.416 E2.05217
G1 X90.753 Y129.743 E2.07089
G1 X90.16 Y129.016 E2.08961
G1 X89.631 Y128.241 E2.10834
G1 X89.17 Y127.425 E2.12704
G1 X88.781 Y126.572 E2.14575
G1 X88.437 Y125.596 E2.1664
G1 X88.352 Y125.313 E2.1723
G1 X88.121 Y124.404 E2.19101
G1 X87.968 Y123.479 E2.20972
G1 X87.894 Y122.528 E2.22876
G1 X87.886 Y122.296 E2.23339
G1 X87.879 Y122.016 E2.23898
G1 X87.877 Y121.793 E2.24343
G1 X87.877 Y121.706 E2.24517
G1 X87.875 Y119.884 E2.28153
G1 X87.876 Y119.717 E2.28486
G1 X87.895 Y118.368 E2.31178
G1 X87.898 Y118.223 E2.31468
G1 X87.937 Y116.799 E2.34311
G1 X87.935 Y114.261 E2.39375
G1 X87.88 Y111.957 E2.43975
G1 X87.877 Y111.706 E2.44476
G1 X87.875 Y109.884 E2.48112
G1 X87.876 Y109.711 E2.48457
G1 X87.886 Y109.026 E2.49824
G1 X87.94 Y108.09 E2.51695
G1 X88.073 Y107.162 E2.53566
G1 X88.199 Y106.579 E2.54756
G1 X88.26 Y106.329 E2.5527
G1 X88.52 Y105.429 E2.57139
G1 X88.857 Y104.553 E2.59012
G1 X89.267 Y103.71 E2.60883
G1 X89.748 Y102.904 E2.62756
G1 X90.295 Y102.143 E2.64626
G1 X90.963 Y101.369 E2.66667
G1 X91.127 Y101.196 E2.67142
G1 X91.801 Y100.544 E2.69014
G0 F6000 X92.079 Y100.831
G1 F1200 X92.794 Y100.251 E2.70851
G1 X93.556 Y99.735 E2.72687
G1 X94.361 Y99.287 E2.74526
G1 X95.201 Y98.911 E2.76362
G1 X96.061 Y98.612 E2.78179
G1 X96.344 Y98.527 E2.78769
G1 X97.236 Y98.301 E2.80605
G1 X98.145 Y98.153 E2.82443
G1 X99.013 Y98.086 E2.84181
G1 X99.236 Y98.078 E2.84626
G1 X99.519 Y98.071 E2.85191
G1 X99.737 Y98.069 E2.85626
G1 X99.833 Y98.069 E2.85818
G1 X114.161 Y98.067 E3.14411
G1 X114.311 Y98.068 E3.1471
G1 X115.02 Y98.078 E3.16125
G1 X115.94 Y98.131 E3.17964
G1 X116.871 Y98.267 E3.19842
G1 X117.225 Y98.335 E3.20561
G1 X118.12 Y98.548 E3.22397
G1 X118.994 Y98.838 E3.24235
G1 X119.84 Y99.202 E3.26073
G1 X120.882 Y99.781 E3.28451
G1 X121.21 Y99.988 E3.29225
G1 X122.121 Y100.632 E3.31452
G1 X124.344 Y102.387 E3.37104
G1 X126.44 Y103.948 E3.42319
G1 X127.016 Y104.363 E3.43736
G1 X127.739 Y104.933 E3.45573
G1 X128.409 Y105.565 E3.47411
G1 X129.022 Y106.251 E3.49247
G1 X129.562 Y106.972 E3.51045
G1 X129.766 Y107.27 E3.51766
G1 X130.252 Y108.052 E3.53603
G1 X130.669 Y108.873 E3.55441
G1 X131.013 Y109.727 E3.57278
G1 X131.263 Y110.533 E3.58962
G1 X131.321 Y110.751 E3.59412
G1 X131.518 Y111.65 E3.61249
G1 X131.664 Y112.961 E3.63881
G1 X131.71 Y113.907 E3.65771
G1 X131.723 Y114.418 E3.66791
G1 X131.724 Y116.953 E3.7185
G1 X131.723 Y117.093 E3.7213
G1 X131.714 Y117.797 E3.73535
G1 X131.662 Y118.716 E3.75372
G1 X131.523 Y119.669 E3.77293
G1 X131.452 Y120.037 E3.78041
G1 X131.239 Y120.933 E3.79879
G1 X130.948 Y121.806 E3.81716
G1 X130.583 Y122.651 E3.83553
G1 X129.938 Y123.796 E3.86175
G1 X129.724 Y124.126 E3.8696
G1 X129.19 Y124.876 E3.88797
G1 X128.593 Y125.577 E3.90635
G1 X127.937 Y126.224 E3.92474
G1 X126.939 Y127.021 E3.95022
G1 X126.447 Y127.368 E3.96224
G1 X126.299 Y127.471 E3.96584
G1 X124.89 Y128.429 E3.99984
G1 X122.807 Y129.933 E4.05111
G1 X122.418 Y130.229 E4.06087
G1 X122.279 Y130.333 E4.06433
G1 X121.593 Y130.838 E4.08133
G1 X121.16 Y131.141 E4.09188
G1 X120.811 Y131.372 E4.10023
G1 X120.022 Y131.846 E4.1186
G1 X119.194 Y132.251 E4.13699
G1 X118.335 Y132.581 E4.15535
G1 X117.427 Y132.842 E4.17421
G1 X117.193 Y132.898 E4.17901
G1 X116.696 Y133.004 E4.18915
G1 X116.384 Y133.063 E4.19549
G1 X115.472 Y133.195 E4.21388
G1 X114.6 Y133.246 E4.23131
G1 X113.69 Y133.262 E4.24947
G1 X113.506 Y133.264 E4.25314
G1 X100.041 Y133.267 E4.52185
G1 X99.889 Y133.266 E4.52488
G1 X99.254 Y133.257 E4.53756
G1 X98.335 Y133.204 E4.55593
G1 X97.424 Y133.071 E4.5743
G1 X96.908 Y132.96 E4.58483
G1 X96.648 Y132.897 E4.59017
G1 X95.763 Y132.641 E4.60856
G1 X94.904 Y132.31 E4.62693
G1 X94.077 Y131.906 E4.6453
G1 X93.288 Y131.431 E4.66368
G1 X92.544 Y130.889 E4.68204
G1 X91.853 Y130.289 E4.70031
G1 X91.681 Y130.126 E4.70504
G1 X91.041 Y129.464 E4.72341
G1 X90.46 Y128.749 E4.7418
G1 X89.944 Y127.987 E4.76016
G1 X89.496 Y127.183 E4.77853
G1 X89.12 Y126.343 E4.79689
G1 X88.82 Y125.481 E4.81511
G1 X88.735 Y125.198 E4.82101
G1 X88.509 Y124.306 E4.83937
G1 X88.361 Y123.397 E4.85775
G1 X88.293 Y122.514 E4.87542
G1 X88.285 Y122.282 E4.88005
G1 X88.279 Y122.012 E4.88544
G1 X88.277 Y121.789 E4.88989
G1 X88.277 Y121.706 E4.89155
G1 X88.275 Y119.884 E4.92791
G1 X88.276 Y119.723 E4.93112
G1 X88.295 Y118.374 E4.95805
G1 X88.298 Y118.234 E4.96084
G1 X88.337 Y116.81 E4.98927
G1 X88.335 Y114.25 E5.04036
G1 X88.28 Y111.947 E5.08633
G1 X88.277 Y111.706 E5.09114
G1 X88.275 Y109.884 E5.1275
G1 X88.276 Y109.717 E5.13083
G1 X88.286 Y109.032 E5.1445
G1 X88.34 Y108.113 E5.16287
G1 X88.472 Y107.202 E5.18124
G1 X88.587 Y106.674 E5.19203
G1 X88.648 Y106.424 E5.19716
G1 X88.905 Y105.54 E5.21553
G1 X89.238 Y104.682 E5.2339
G1 X89.643 Y103.855 E5.25228
G1 X90.119 Y103.067 E5.27065
G1 X90.662 Y102.324 E5.28901
G1 X91.253 Y101.644 E5.30699
G1 X91.417 Y101.471 E5.31175
G1 X92.079 Y100.831 E5.33013
G0 F6000 X92.357 Y101.119
G1 F1200 X93.06 Y100.552 E5.34815
G1 X93.81 Y100.049 E5.36617
G1 X94.602 Y99.614 E5.3842
G1 X95.429 Y99.252 E5.40222
G1 X96.176 Y98.995 E5.41798
G1 X96.459 Y98.91 E5.42388
G1 X97.334 Y98.689 E5.44189
G1 X98.226 Y98.546 E5.45992
G1 X99.027 Y98.486 E5.47595
G1 X99.25 Y98.478 E5.4804
G1 X99.522 Y98.471 E5.48583
G1 X99.74 Y98.469 E5.49018
G1 X99.833 Y98.469 E5.49204
G1 X114.161 Y98.467 E5.77797
G1 X114.306 Y98.468 E5.78086
G1 X115.015 Y98.478 E5.79501
G1 X115.916 Y98.531 E5.81302
G1 X116.795 Y98.66 E5.83075
G1 X117.149 Y98.728 E5.83795
G1 X118.028 Y98.938 E5.85598
G1 X118.884 Y99.224 E5.87399
G1 X119.712 Y99.585 E5.89202
G1 X120.669 Y100.119 E5.91389
G1 X120.997 Y100.326 E5.92163
G1 X121.873 Y100.946 E5.94305
G1 X124.102 Y102.706 E5.99972
G1 X126.175 Y104.249 E6.05129
G1 X126.782 Y104.687 E6.06623
G1 X127.49 Y105.248 E6.08426
G1 X128.146 Y105.868 E6.10227
G1 X128.745 Y106.545 E6.12031
G1 X129.232 Y107.198 E6.13657
G1 X129.436 Y107.496 E6.14377
G1 X129.912 Y108.263 E6.16179
G1 X130.319 Y109.069 E6.17981
G1 X130.653 Y109.909 E6.19785
G1 X130.876 Y110.635 E6.213
G1 X130.934 Y110.853 E6.2175
G1 X131.127 Y111.736 E6.23554
G1 X131.265 Y112.981 E6.26054
G1 X131.311 Y113.927 E6.27944
G1 X131.323 Y114.418 E6.28924
G1 X131.324 Y116.953 E6.33983
G1 X131.323 Y117.087 E6.3425
G1 X131.314 Y117.791 E6.35655
G1 X131.263 Y118.693 E6.37458
G1 X131.13 Y119.593 E6.39274
G1 X131.059 Y119.961 E6.40022
G1 X130.849 Y120.84 E6.41825
G1 X130.562 Y121.696 E6.43627
G1 X130.2 Y122.523 E6.45428
G1 X129.602 Y123.579 E6.4785
G1 X129.388 Y123.909 E6.48635
G1 X128.864 Y124.644 E6.50437
G1 X128.276 Y125.33 E6.5224
G1 X127.63 Y125.961 E6.54042
G1 X126.709 Y126.694 E6.56391
G1 X126.217 Y127.041 E6.57592
G1 X126.074 Y127.14 E6.57939
G1 X124.677 Y128.09 E6.61311
G1 X122.57 Y129.611 E6.66497
G1 X122.176 Y129.911 E6.67485
G1 X122.042 Y130.011 E6.67818
G1 X121.356 Y130.516 E6.69518
G1 X120.939 Y130.808 E6.70534
G1 X120.59 Y131.039 E6.71369
G1 X119.815 Y131.503 E6.73172
G1 X119.003 Y131.898 E6.74974
G1 X118.159 Y132.218 E6.76775
G1 X117.334 Y132.453 E6.78487
G1 X117.1 Y132.509 E6.78967
G1 X116.621 Y132.611 E6.79945
G1 X116.309 Y132.67 E6.80578
G1 X115.415 Y132.799 E6.82381
G1 X114.593 Y132.846 E6.84024
G1 X113.683 Y132.862 E6.8584
G1 X113.506 Y132.864 E6.86194
G1 X100.041 Y132.867 E7.13064
G1 X99.894 Y132.866 E7.13358
G1 X99.259 Y132.857 E7.14625
G1 X98.358 Y132.804 E7.16426
G1 X97.465 Y132.672 E7.18228
G1 X97.002 Y132.571 E7.19173
G1 X96.742 Y132.508 E7.19707
G1 X95.875 Y132.257 E7.21509
G1 X95.033 Y131.93 E7.23311
G1 X94.223 Y131.53 E7.25114
G1 X93.452 Y131.059 E7.26917
G1 X92.726 Y130.523 E7.28718
G1 X92.128 Y129.999 E7.30304
G1 X91.956 Y129.836 E7.30777
G1 X91.328 Y129.186 E7.32581
G1 X90.761 Y128.483 E7.34383
G1 X90.258 Y127.733 E7.36186
G1 X89.823 Y126.942 E7.37987
G1 X89.46 Y126.115 E7.39789
G1 X89.203 Y125.366 E7.4137
G1 X89.118 Y125.083 E7.41959
G1 X88.897 Y124.208 E7.4376
G1 X88.754 Y123.316 E7.45563
G1 X88.693 Y122.501 E7.47194
G1 X88.685 Y122.269 E7.47657
G1 X88.679 Y122.008 E7.48178
G1 X88.677 Y121.785 E7.48623
G1 X88.677 Y121.705 E7.48783
G1 X88.675 Y119.883 E7.52419
G1 X88.676 Y119.728 E7.52728
G1 X88.695 Y118.379 E7.55421
G1 X88.698 Y118.244 E7.5569
G1 X88.737 Y116.82 E7.58533
G1 X88.735 Y114.241 E7.6368
G1 X88.68 Y111.938 E7.68277
G1 X88.677 Y111.705 E7.68742
G1 X88.675 Y109.883 E7.72378
G1 X88.676 Y109.723 E7.72697
G1 X88.686 Y109.038 E7.74064
G1 X88.739 Y108.137 E7.75865
G1 X88.872 Y107.243 E7.77669
G1 X88.976 Y106.769 E7.78638
G1 X89.037 Y106.519 E7.79151
G1 X89.289 Y105.652 E7.80953
G1 X89.618 Y104.811 E7.82755
G1 X90.019 Y104.002 E7.84557
G1 X90.491 Y103.232 E7.86359
G1 X91.029 Y102.506 E7.88163
G1 X91.544 Y101.92 E7.89719
G1 X91.708 Y101.747 E7.90195
G1 X92.357 Y101.119 E7.91997
G1 F1500 E1.41997
;MESH:slider.STL
G0 F6000 X99.131 Y108.047
G0 X99.427 Y109.088
G0 X100.059 Y111.485
G0 X114.303 Y112.239
G0 X115.074 Y118.807
G0 X118.499 Y117.668
;TYPE:WALL-INNER
G1 F1500 E7.91997
G1 F1200 X119.157 Y117.453 E7.93379
G1 X119.794 Y116.879 E7.9509
G1 X120.126 Y116.135 E7.96716
G1 X120.143 Y116.095 E7.96803
G1 X120.143 Y115.238 E7.98513
G1 X120.124 Y115.196 E7.98605
G1 X119.794 Y114.454 E8.00225
G1 X119.156 Y113.88 E8.01938
G1 X118.493 Y113.664 E8.03329
G1 X118.341 Y113.615 E8.03648
G1 X117.86 Y113.665 E8.04613
G1 X117.488 Y113.705 E8.0536
G1 X116.745 Y114.133 E8.07071
G1 X116.239 Y114.828 E8.08787
G1 X116.062 Y115.667 E8.10498
G1 X116.239 Y116.505 E8.12207
G1 X116.744 Y117.2 E8.13921
G1 X117.488 Y117.629 E8.15635
G1 X117.85 Y117.668 E8.16362
G1 X118.342 Y117.719 E8.17349
G1 X118.499 Y117.668 E8.17678
G0 F6000 X118.299 Y117.312
;TYPE:WALL-OUTER
G1 F1200 X118.952 Y117.099 E8.19049
G1 X119.463 Y116.639 E8.20421
G1 X119.743 Y116.01 E8.21795
G1 X119.743 Y115.323 E8.23166
G1 X119.463 Y114.694 E8.2454
G1 X118.952 Y114.234 E8.25912
G1 X118.298 Y114.022 E8.27284
G1 X117.614 Y114.094 E8.28657
G1 X117.018 Y114.437 E8.30029
G1 X116.613 Y114.994 E8.31403
G1 X116.471 Y115.667 E8.32776
G1 X116.613 Y116.339 E8.34147
G1 X117.018 Y116.896 E8.35521
G1 X117.614 Y117.24 E8.36894
G1 X118.299 Y117.312 E8.38269
G0 F6000 X118.345 Y117.749
G0 X119.074 Y117.31
G0 X119.66 Y116.782
G0 X119.949 Y116.134
G0 X120.122 Y114.212
;TYPE:WALL-INNER
G1 F1200 X119.898 Y114.01 E8.38871
G1 X119.85 Y113.967 E8.38999
G1 X119.799 Y113.921 E8.39136
G1 X119.517 Y113.667 E8.39894
G1 X120.027 Y113.667 E8.40437
G1 X120.106 Y113.682 E8.40584
G1 X120.122 Y113.761 E8.40731
G1 X120.122 Y114.212 E8.4123
G0 F6000 X120.522 Y113.72
G1 F1200 X120.522 Y115.19 E8.44164
G1 X120.522 Y115.237 E8.44256
G1 X120.523 Y116.094 E8.45882
G1 X120.523 Y116.138 E8.45968
G1 X120.525 Y117.609 E8.48904
G1 X120.486 Y117.809 E8.4931
G1 X120.401 Y117.938 E8.49619
G1 X120.278 Y118.022 E8.49916
G1 X120.072 Y118.064 E8.50335
G1 X118.509 Y118.065 E8.53454
G1 X118.343 Y118.065 E8.53764
G1 X117.848 Y118.065 E8.54686
G1 X117.315 Y118.067 E8.5575
G1 X116.567 Y118.216 E8.57272
G1 X115.882 Y118.674 E8.58917
G1 X115.424 Y119.359 E8.60561
G1 X115.275 Y120.108 E8.62085
G1 X115.275 Y121.092 E8.64049
G1 X115.198 Y121.498 E8.64873
G1 X115.008 Y121.786 E8.65562
G1 X114.79 Y121.934 E8.66088
G1 X114.722 Y121.981 E8.66253
G1 X114.323 Y122.064 E8.67066
G1 X99.477 Y122.067 E8.96693
G1 X99.475 Y119.468 E9.01879
G1 X99.475 Y119.269 E9.02276
G1 X99.674 Y119.269 E9.02533
G1 X114.475 Y119.267 E9.3207
G1 X114.475 Y112.067 E9.46439
G1 X99.477 Y112.067 E9.76369
G1 X99.475 Y109.468 E9.81555
G1 X99.475 Y109.269 E9.81953
G1 X99.674 Y109.269 E9.82209
G1 X114.817 Y109.267 E10.12429
G1 X115.018 Y109.306 E10.12838
G1 X115.146 Y109.391 E10.13144
G1 X115.23 Y109.514 E10.13441
G1 X115.272 Y109.72 E10.13861
G1 X115.275 Y111.193 E10.16801
G1 X115.422 Y111.972 E10.18383
G1 X115.882 Y112.66 E10.20034
G1 X116.567 Y113.117 E10.21677
G1 X117.315 Y113.267 E10.232
G1 X117.857 Y113.267 E10.24281
G1 X118.341 Y113.267 E10.25186
G1 X118.501 Y113.267 E10.25485
G1 X120.067 Y113.267 E10.2861
G1 X120.268 Y113.306 E10.29019
G1 X120.396 Y113.391 E10.29325
G1 X120.48 Y113.514 E10.29623
G1 X120.522 Y113.72 E10.30042
G0 F6000 X120.125 Y117.119
G1 F1200 X120.125 Y117.568 E10.30938
G1 X120.109 Y117.648 E10.31101
G1 X120.031 Y117.664 E10.3126
G1 X119.52 Y117.665 E10.3228
G1 X119.802 Y117.411 E10.32561
G1 X119.853 Y117.365 E10.32645
G1 X119.901 Y117.322 E10.32676
G1 X120.125 Y117.119 E10.32878
G0 F6000 X119.982 Y115.272
G0 X119.66 Y114.551
G0 X119.073 Y114.023
G0 X118.466 Y113.827
G0 X116.888 Y113.589
G1 F1200 X116.572 Y113.771 E10.33605
G1 X116.472 Y113.829 E10.33836
G1 X116.455 Y113.853 E10.33895
